suite-common/icons/assets/icons/handCoins.svg

<svg xmlns="http://www.w3.org/2000/svg" viewBox="0 0 24 24">
  <path fill-rule="evenodd" d="M14.496 2.138a3.59 3.59 0 0 0-2.378 1.956c-.25.534-.318.86-.318 1.526 0 .696.074 1.027.356 1.6a3.53 3.53 0 0 0 1.624 1.623c.511.249.952.358 1.537.38l.457.017.173.325a3.52 3.52 0 0 0 2.033 1.71q1.405.466 2.72-.17c.951-.46 1.613-1.261 1.922-2.325.055-.187.07-.391.069-.921 0-.67-.003-.688-.137-1.081-.306-.892-.819-1.528-1.625-2.012-.543-.327-1.165-.483-1.93-.485l-.261-.001-.145-.292c-.372-.752-1.122-1.422-1.937-1.732-.623-.236-1.514-.285-2.16-.118m1.484 1.978c.411.182.86.622.86.843 0 .057-.095.192-.256.363-.448.474-.843 1.152-.949 1.625-.07.313-.143.353-.505.278-.548-.115-.992-.447-1.22-.914-.101-.208-.11-.264-.11-.701 0-.425.01-.495.099-.672.13-.261.426-.594.636-.717.384-.225 1.062-.274 1.445-.105m3.468 2.168c1.174.246 1.688 1.66.946 2.599-.354.448-.981.697-1.508.6-.783-.144-1.318-.737-1.358-1.505a1.7 1.7 0 0 1 .05-.562 1.61 1.61 0 0 1 1.87-1.132M8.2 10.319c-.439.021-.595.045-.836.131-.61.218-.84.398-2.121 1.657l-1.188 1.166-1.497.014-1.498.013-.273.134c-.171.083-.37.228-.53.385L0 14.071v5.557l.138.182c.173.226.479.453.775.575l.227.093 5.13.001 5.13.001 3.07-.766 3.07-.766 1.66-.71c2.272-.971 2.373-1.02 2.67-1.295.3-.278.572-.676.717-1.049.095-.246.106-.328.107-.794.002-.822-.179-1.273-.731-1.822-.503-.501-1.051-.734-1.723-.733-.435.001-.633.039-2.735.521-.811.186-1.48.333-1.486.326a5 5 0 0 1-.054-.452 5 5 0 0 0-.107-.66c-.227-.764-.903-1.49-1.681-1.805-.291-.118-.368-.131-.937-.159-.733-.035-4.266-.033-5.04.003m5.348 2.057a.868.868 0 0 1 .241 1.325c-.222.269-.236.271-1.949.301s-1.725.031-2.013.31c-.234.225-.283.346-.283.688 0 .431.178.707.576.895.173.082.245.085 1.83.097l1.649.013 2.591-.601c3.778-.876 4.021-.929 4.119-.905.14.035.362.251.411.401a.48.48 0 0 1-.134.527c-.16.135-.442.265-2.229 1.027l-1.457.622-2.89.722-2.889.722H5.48v-3.87l1.08-1.064c.594-.586 1.153-1.113 1.242-1.172.225-.149.451-.161 3.186-.168l2.328-.006zM3.52 16.88v1.64H1.772l-.026-.606a50 50 0 0 1-.026-1.64V15.24h1.8z"/>
</svg>

<svg xmlns="http://www.w3.org/2000/svg" viewBox="0 0 24 24"><path d="M14.496 2.138 C 13.434 2.413,12.575 3.119,12.118 4.094 C 11.868 4.628,11.800 4.954,11.800 5.620 C 11.800 6.316,11.874 6.647,12.156 7.220 C 12.507 7.933,13.073 8.498,13.780 8.843 C 14.291 9.092,14.732 9.201,15.317 9.223 L 15.774 9.240 15.947 9.565 C 16.388 10.389,17.089 10.979,17.980 11.275 C 18.916 11.586,19.824 11.529,20.700 11.105 C 21.651 10.645,22.313 9.844,22.622 8.780 C 22.677 8.593,22.692 8.389,22.691 7.859 C 22.691 7.189,22.688 7.171,22.554 6.778 C 22.248 5.886,21.735 5.250,20.929 4.766 C 20.386 4.439,19.764 4.283,18.999 4.281 L 18.738 4.280 18.593 3.988 C 18.221 3.236,17.471 2.566,16.656 2.256 C 16.033 2.020,15.142 1.971,14.496 2.138 M15.980 4.116 C 16.391 4.298,16.840 4.738,16.840 4.959 C 16.840 5.016,16.745 5.151,16.584 5.322 C 16.136 5.796,15.741 6.474,15.635 6.947 C 15.565 7.260,15.492 7.300,15.130 7.225 C 14.582 7.110,14.138 6.778,13.910 6.311 C 13.809 6.103,13.800 6.047,13.800 5.610 C 13.800 5.185,13.810 5.115,13.899 4.938 C 14.029 4.677,14.325 4.344,14.535 4.221 C 14.919 3.996,15.597 3.947,15.980 4.116 M19.448 6.284 C 20.622 6.530,21.136 7.944,20.394 8.883 C 20.040 9.331,19.413 9.580,18.886 9.483 C 18.103 9.339,17.568 8.746,17.528 7.978 C 17.516 7.749,17.531 7.583,17.578 7.416 C 17.808 6.611,18.630 6.113,19.448 6.284 M8.200 10.319 C 7.761 10.340,7.605 10.364,7.364 10.450 C 6.754 10.668,6.524 10.848,5.243 12.107 L 4.055 13.273 2.558 13.287 L 1.060 13.300 0.787 13.434 C 0.616 13.517,0.417 13.662,0.257 13.819 L 0.000 14.071 0.000 16.850 L -0.000 19.628 0.138 19.810 C 0.311 20.036,0.617 20.263,0.913 20.385 L 1.140 20.478 6.270 20.479 L 11.400 20.480 14.470 19.714 L 17.540 18.948 19.200 18.238 C 21.472 17.267,21.573 17.218,21.870 16.943 C 22.170 16.665,22.442 16.267,22.587 15.894 C 22.682 15.648,22.693 15.566,22.694 15.100 C 22.696 14.278,22.515 13.827,21.963 13.278 C 21.460 12.777,20.912 12.544,20.240 12.545 C 19.805 12.546,19.607 12.584,17.505 13.066 C 16.694 13.252,16.025 13.399,16.019 13.392 C 16.012 13.385,15.988 13.182,15.965 12.940 C 15.942 12.698,15.894 12.401,15.858 12.280 C 15.631 11.516,14.955 10.790,14.177 10.475 C 13.886 10.357,13.809 10.344,13.240 10.316 C 12.507 10.281,8.974 10.283,8.200 10.319 M13.548 12.376 C 14.034 12.661,14.144 13.270,13.789 13.701 C 13.567 13.970,13.553 13.972,11.840 14.002 C 10.126 14.032,10.115 14.033,9.827 14.312 C 9.593 14.537,9.544 14.658,9.544 15.000 C 9.544 15.431,9.722 15.707,10.120 15.895 C 10.293 15.977,10.365 15.980,11.950 15.992 L 13.599 16.005 16.190 15.404 C 19.968 14.528,20.211 14.475,20.309 14.499 C 20.449 14.534,20.671 14.750,20.720 14.900 C 20.785 15.098,20.733 15.302,20.586 15.427 C 20.426 15.562,20.144 15.692,18.357 16.454 L 16.900 17.076 14.010 17.798 L 11.121 18.520 8.300 18.520 L 5.480 18.520 5.480 16.585 L 5.480 14.650 6.560 13.586 C 7.154 13.000,7.713 12.473,7.802 12.414 C 8.027 12.265,8.253 12.253,10.988 12.246 L 13.316 12.240 13.548 12.376 M3.520 16.880 L 3.520 18.520 2.646 18.520 L 1.772 18.520 1.746 17.914 C 1.732 17.580,1.720 16.842,1.720 16.274 L 1.720 15.240 2.620 15.240 L 3.520 15.240 3.520 16.880 " stroke="none" fill-rule="evenodd" fill="black"></path></svg>
